**kern	**silbe	**harmony	**phrase	**leadinstrument	**rhyme	**timestamp	**harte
*ICvox	*	*M4/4	*	*	*	*	*M4/4
*VRlead	*	*	*	*	*	*	*
*Hstimme	*	*	*	*	*	*	*
*A:	*	*A:	*	*	*	*	*A:
*M4/4	*	*	*	*	*	*	*
*clefF4	*	*	*	*	*	*	*
r;	.	1r;	.	r	.	0	N.C.
=1	=1	=1	=1	=1	=1	=1	=1
*>Letter>A	*>Letter>A	*>Letter>A	*>Letter>A	*>Letter>A	*>Letter>A	*>Letter>A	*>Letter>A
*>Label>Intro	*>Label>Intro	*>Label>Intro	*>Label>Intro	*>Label>Intro	*>Label>Intro	*>Label>Intro	*>Label>Intro
1r	.	1AM	newline	guitar	.	0.395	A:maj
=2	=2	=2	=2	=2	=2	=2	=2
1r	.	1EM	.	guitar	.	2.259	E:maj
=3	=3	=3	=3	=3	=3	=3	=3
1r	.	1F#m	.	guitar	.	4.123	F#:min
=4	=4	=4	=4	=4	=4	=4	=4
1r	.	1DM	.	guitar	.	5.988	D:maj
=5	=5	=5	=5	=5	=5	=5	=5
1r	.	1AM	newline	guitar	.	7.852	A:maj
=6	=6	=6	=6	=6	=6	=6	=6
1r	.	1EM	.	guitar	.	9.717	E:maj
=7	=7	=7	=7	=7	=7	=7	=7
1r	.	1F#m	.	guitar	.	11.582	F#:min
=8	=8	=8	=8	=8	=8	=8	=8
2r	.	1DM	.	guitar	.	13.447	D:maj
4r	.	.	.	.	.	.	.
8r	.	.	.	.	.	.	.
[8A	We	.	.	.	.	.	.
=9	=9	=9	=9	=9	=9	=9	=9
*>Letter>A	*>Letter>A	*>Letter>A	*>Letter>A	*>Letter>A	*>Letter>A	*>Letter>A	*>Letter>A
*>Label>Verse	*>Label>Verse	*>Label>Verse	*>Label>Verse	*>Label>Verse	*>Label>Verse	*>Label>Verse	*>Label>Verse
8A]	_	1AM	newline	voice	.	15.312	A:maj
8A	get	.	.	.	.	.	.
8A	in	.	.	.	.	.	.
8A	the	.	.	.	.	.	.
4.A	car	.	.	.	.	.	.
[8B	out	.	.	.	.	.	.
=10	=10	=10	=10	=10	=10	=10	=10
8B]	_	1EM	.	voice	.	17.121	E:maj
8B	side	.	.	.	.	.	.
8B	your	.	.	.	.	.	.
[8B	house	.	.	.	A	.	.
4B]	_	.	.	.	.	.	.
8B	oh	.	.	.	.	.	.
[8c#	_	.	.	.	.	.	.
=11	=11	=11	=11	=11	=11	=11	=11
4c#]	_	1F#m	.	voice	.	18.929	F#:min
8c#	I	.	.	.	.	.	.
8c#	can	.	.	.	.	.	.
8c#	feel	.	.	.	.	.	.
8c	the	.	.	.	.	.	.
8c#	heat	.	.	.	.	.	.
8c	a	.	.	.	.	.	.
=12	=12	=12	=12	=12	=12	=12	=12
8c#	com	1DM	.	voice	.	20.738	D:maj
8c#	in'	.	.	.	.	.	.
8B	_	.	.	.	.	.	.
[8A	round	.	.	.	A	.	.
2A]	_	.	.	.	.	.	.
=13	=13	=13	=13	=13	=13	=13	=13
8r	.	1AM	newline	voice	.	22.547	A:maj
8A	I	.	.	.	.	.	.
8A	go	.	.	.	.	.	.
8A	to	.	.	.	.	.	.
8A	put	.	.	.	.	.	.
4A	my	.	.	.	.	.	.
[8B	arm	.	.	.	.	.	.
=14	=14	=14	=14	=14	=14	=14	=14
4B]	_	1EM	.	voice	.	24.368	E:maj
8B	a	.	.	.	.	.	.
[8B	round	.	.	.	.	.	.
8B]	_	.	.	.	.	.	.
8A	you	.	.	.	.	.	.
8A	and	.	.	.	.	.	.
8A	you	.	.	.	.	.	.
=15	=15	=15	=15	=15	=15	=15	=15
8r	.	1F#m	.	voice	.	26.19	F#:min
8c#	give	.	.	.	.	.	.
8c#	me	.	.	.	.	.	.
8c	a	.	.	.	.	.	.
8c#	look	.	.	.	.	.	.
8c	a	.	.	.	.	.	.
8c#	like	.	.	.	.	.	.
8c	I'm	.	.	.	.	.	.
=16	=16	=16	=16	=16	=16	=16	=16
8c#	way	1DM	.	voice	.	28.012	D:maj
8c#	out	.	.	.	.	.	.
8B	of	.	.	.	.	.	.
[8A	bounds	.	.	.	A	.	.
4A]	_	.	.	.	.	.	.
8F#	well	.	.	.	.	.	.
8E	_	.	.	.	.	.	.
=17	=17	=17	=17	=17	=17	=17	=17
8r	.	1AM	newline	voice	.	29.833	A:maj
8A	you	.	.	.	.	.	.
8A	let	.	.	.	.	.	.
8A	out	.	.	.	.	.	.
8A	one	.	.	.	.	.	.
4A	of	.	.	.	.	.	.
[8B	your	.	.	.	.	.	.
=18	=18	=18	=18	=18	=18	=18	=18
8B]	_	1EM	.	voice	.	31.641	E:maj
4.B	bored	.	.	.	.	.	.
4B	sighs	.	.	.	B	.	.
4r	.	.	.	.	.	.	.
=19	=19	=19	=19	=19	=19	=19	=19
8r	.	1F#m	.	voice	.	33.448	F#:min
8c#	Well	.	.	.	.	.	.
8c#	late	.	.	.	.	.	.
8c#	ly	.	.	.	.	.	.
8c#	when	.	.	.	.	.	.
8c	I	.	.	.	.	.	.
8c#	look	.	.	.	.	.	.
8c	in	.	.	.	.	.	.
=20	=20	=20	=20	=20	=20	=20	=20
8c#	to	1DM	.	voice	.	35.256	D:maj
4c#	your	.	.	.	.	.	.
[8A	eyes	.	.	.	B	.	.
8A]	_	.	.	.	.	.	.
8A	I'm	.	.	.	.	.	.
8B	go	.	.	.	.	.	.
8A	ing	.	.	.	.	.	.
=21	=21	=21	=21	=21	=21	=21	=21
*>Letter>B	*>Letter>B	*>Letter>B	*>Letter>B	*>Letter>B	*>Letter>B	*>Letter>B	*>Letter>B
*>Label>Chorus	*>Label>Chorus	*>Label>Chorus	*>Label>Chorus	*>Label>Chorus	*>Label>Chorus	*>Label>Chorus	*>Label>Chorus
4.A	down	1AM	newline	voice	A	37.063	A:maj
[8A	down	.	.	.	A	.	.
4A]	_	.	.	.	.	.	.
[4A	down	.	.	.	A	.	.
=22	=22	=22	=22	=22	=22	=22	=22
8A]	_	1EM	.	voice	.	38.886	E:maj
4.A	down	.	.	.	A	.	.
8r	.	.	.	.	.	.	.
8B	I'm	.	.	.	.	.	.
8B	go	.	.	.	.	.	.
8A	ing	.	.	.	.	.	.
=23	=23	=23	=23	=23	=23	=23	=23
4.A	down	1F#m	.	voice	A	40.709	F#:min
[8A	down	.	.	.	A	.	.
4A]	_	.	.	.	.	.	.
[4A	down	.	.	.	A	.	.
=24	=24	=24	=24	=24	=24	=24	=24
8A]	_	1DM	.	voice	.	42.532	D:maj
4.A	down	.	.	.	A	.	.
8r	.	.	.	.	.	.	.
8B	I'm	.	.	.	.	.	.
8B	go	.	.	.	.	.	.
8A	ing	.	.	.	.	.	.
=25	=25	=25	=25	=25	=25	=25	=25
4.A	down	1AM	newline	voice	A	44.355	A:maj
[8A	down	.	.	.	A	.	.
4A]	_	.	.	.	.	.	.
[4B	down	.	.	.	A	.	.
=26	=26	=26	=26	=26	=26	=26	=26
8B]	_	1EM	.	voice	.	46.165	E:maj
4.B	down	.	.	.	A	.	.
8r	.	.	.	.	.	.	.
8c#	I'm	.	.	.	.	.	.
8c#	go	.	.	.	.	.	.
8B	ing	.	.	.	.	.	.
=27	=27	=27	=27	=27	=27	=27	=27
4.A	down	1F#m	.	voice	A	47.976	F#:min
[8A	down	.	.	.	A	.	.
4A]	_	.	.	.	.	.	.
[4A	down	.	.	.	A	.	.
=28	=28	=28	=28	=28	=28	=28	=28
8A]	_	1DM	.	voice	.	49.786	D:maj
4.A	down	.	.	.	A	.	.
2r	.	.	.	.	.	.	.
=29	=29	=29	=29	=29	=29	=29	=29
*>Letter>A	*>Letter>A	*>Letter>A	*>Letter>A	*>Letter>A	*>Letter>A	*>Letter>A	*>Letter>A
*>Label>Verse	*>Label>Verse	*>Label>Verse	*>Label>Verse	*>Label>Verse	*>Label>Verse	*>Label>Verse	*>Label>Verse
8r	.	1AM	newline	voice	.	51.597	A:maj
8A	We	.	.	.	.	.	.
8A	get	.	.	.	.	.	.
[8A	dresssed	.	.	.	.	.	.
4.A]	_	.	.	.	.	.	.
[8B	up	.	.	.	.	.	.
=30	=30	=30	=30	=30	=30	=30	=30
4B]	_	1EM	.	voice	.	53.413	E:maj
8B	and	.	.	.	.	.	.
4B	we	.	.	.	.	.	.
8B	go	.	.	.	.	.	.
4A	_	.	.	.	.	.	.
=31	=31	=31	=31	=31	=31	=31	=31
4r	.	1F#m	.	voice	.	55.229	F#:min
4c#	out	.	.	.	A	.	.
4r	.	.	.	.	.	.	.
8c#	ba	.	.	.	.	.	.
8c#	by	.	.	.	.	.	.
=32	=32	=32	=32	=32	=32	=32	=32
8c#	for	1DM	.	voice	.	57.045	D:maj
4B	the	.	.	.	.	.	.
[8A	night	.	.	.	B	.	.
4A]	_	.	.	.	.	.	.
4r	.	.	.	.	.	.	.
=33	=33	=33	=33	=33	=33	=33	=33
8r	.	1AM	newline	voice	.	58.862	A:maj
8A	we	.	.	.	.	.	.
8A	come	.	.	.	.	.	.
4A	home	.	.	.	.	.	.
8A	ear	.	.	.	.	.	.
8A	ly	.	.	.	.	.	.
[8B	burn	.	.	.	.	.	.
=34	=34	=34	=34	=34	=34	=34	=34
4B]	_	1EM	.	voice	.	60.673	E:maj
8B	ing	.	.	.	.	.	.
4c#	burn	.	.	.	.	.	.
[8A	ing	.	.	.	.	.	.
4A]	_	.	.	.	.	.	.
=35	=35	=35	=35	=35	=35	=35	=35
4r	.	1F#m	.	voice	.	62.485	F#:min
8c#	burn	.	.	.	.	.	.
8c#	ing	.	.	.	.	.	.
4c#	in	.	.	.	.	.	.
4c#	some	.	.	.	.	.	.
=36	=36	=36	=36	=36	=36	=36	=36
8c#	fi	1DM	.	voice	.	64.297	D:maj
8c#	re	.	.	.	.	.	.
8B	_	.	.	.	.	.	.
[8A	fight	.	.	.	B	.	.
4A]	_	.	.	.	.	.	.
4r	.	.	.	.	.	.	.
=37	=37	=37	=37	=37	=37	=37	=37
8r	.	1AM	newline	voice	.	66.109	A:maj
8A	I'm	.	.	.	.	.	.
8A	sick	.	.	.	.	.	.
8A	and	.	.	.	.	.	.
4A	tired	.	.	.	.	.	.
8A	of	.	.	.	.	.	.
8A	you	.	.	.	.	.	.
=38	=38	=38	=38	=38	=38	=38	=38
8B	set	1EM	.	voice	.	67.912	E:maj
8B	ting	.	.	.	.	.	.
8B	me	.	.	.	.	.	.
4B	up	.	.	.	.	.	.
[8A	_	.	.	.	.	.	.
4A]	_	.	.	.	.	.	.
=39	=39	=39	=39	=39	=39	=39	=39
8r	.	1F#m	.	voice	.	69.716	F#:min
8c#	Set'n	.	.	.	.	.	.
8c#	me	.	.	.	.	.	.
4c#	up	.	.	.	.	.	.
8c#	by	.	.	.	.	.	.
8c#	just	.	.	.	.	.	.
8c#	a	.	.	.	.	.	.
=40	=40	=40	=40	=40	=40	=40	=40
8c#	knock	1DM	.	voice	.	71.52	D:maj
8c	a	.	.	.	.	.	.
8c#	knock	.	.	.	.	.	.
8c	a	.	.	.	.	.	.
8c#	knock	.	.	.	.	.	.
8c#	in	.	.	.	.	.	.
8B	me	.	.	.	.	.	.
[8A	down	.	.	.	A	.	.
=41	=41	=41	=41	=41	=41	=41	=41
*>Letter>B	*>Letter>B	*>Letter>B	*>Letter>B	*>Letter>B	*>Letter>B	*>Letter>B	*>Letter>B
*>Label>Chorus	*>Label>Chorus	*>Label>Chorus	*>Label>Chorus	*>Label>Chorus	*>Label>Chorus	*>Label>Chorus	*>Label>Chorus
4.A]	_	1AM	newline	voice	.	73.324	A:maj
[8A	down	.	.	.	A	.	.
4A]	_	.	.	.	.	.	.
[4A	down	.	.	.	A	.	.
=42	=42	=42	=42	=42	=42	=42	=42
8A]	_	1EM	.	voice	.	75.127	E:maj
4.A	down	.	.	.	A	.	.
8r	.	.	.	.	.	.	.
8B	I'm	.	.	.	.	.	.
8B	go	.	.	.	.	.	.
8A	in	.	.	.	.	.	.
=43	=43	=43	=43	=43	=43	=43	=43
4.A	down	1F#m	.	voice	A	76.931	F#:min
[8A	down	.	.	.	A	.	.
4A]	_	.	.	.	.	.	.
[4A	down	.	.	.	A	.	.
=44	=44	=44	=44	=44	=44	=44	=44
8A]	_	1DM	.	voice	.	78.734	D:maj
4.A	down	.	.	.	A	.	.
8r	.	.	.	.	.	.	.
8B	I'm	.	.	.	.	.	.
8B	go	.	.	.	.	.	.
8A	in	.	.	.	.	.	.
=45	=45	=45	=45	=45	=45	=45	=45
4.A	down	1AM	newline	voice	.	80.538	A:maj
[8A	down	.	.	.	.	.	.
4A]	_	.	.	.	.	.	.
[4B	down	.	.	.	.	.	.
=46	=46	=46	=46	=46	=46	=46	=46
8B]	_	1EM	.	voice	.	82.355	E:maj
4.B	down	.	.	.	.	.	.
8r	.	.	.	.	.	.	.
8c#	I'm	.	.	.	.	.	.
8c#	go	.	.	.	.	.	.
8B	in	.	.	.	.	.	.
=47	=47	=47	=47	=47	=47	=47	=47
4.A	down	1F#m	.	voice	.	84.173	F#:min
[8A	down	.	.	.	.	.	.
4A]	_	.	.	.	.	.	.
[4A	down	.	.	.	.	.	.
=48	=48	=48	=48	=48	=48	=48	=48
8A]	_	1DM	.	voice	.	85.991	D:maj
4.A	down	.	.	.	.	.	.
2r	.	.	.	.	.	.	.
=49	=49	=49	=49	=49	=49	=49	=49
*>Letter>B	*>Letter>B	*>Letter>B	*>Letter>B	*>Letter>B	*>Letter>B	*>Letter>B	*>Letter>B
*>Label>Solo	*>Label>Solo	*>Label>Solo	*>Label>Solo	*>Label>Solo	*>Label>Solo	*>Label>Solo	*>Label>Solo
1r	.	1AM	newline	saxophone	.	87.809	A:maj
=50	=50	=50	=50	=50	=50	=50	=50
1r	.	1EM	.	saxophone	.	89.627	E:maj
=51	=51	=51	=51	=51	=51	=51	=51
1r	.	1F#m	.	saxophone	.	91.446	F#:min
=52	=52	=52	=52	=52	=52	=52	=52
1r	.	1DM	.	saxophone	.	93.265	D:maj
=53	=53	=53	=53	=53	=53	=53	=53
1r	.	1AM	newline	saxophone	.	95.083	A:maj
=54	=54	=54	=54	=54	=54	=54	=54
1r	.	1EM	.	saxophone	.	96.907	E:maj
=55	=55	=55	=55	=55	=55	=55	=55
1r	.	1F#m	.	saxophone	.	98.731	F#:min
=56	=56	=56	=56	=56	=56	=56	=56
1r	.	1DM	.	saxophone	.	100.555	D:maj
=57	=57	=57	=57	=57	=57	=57	=57
*>Letter>A	*>Letter>A	*>Letter>A	*>Letter>A	*>Letter>A	*>Letter>A	*>Letter>A	*>Letter>A
*>Label>Verse	*>Label>Verse	*>Label>Verse	*>Label>Verse	*>Label>Verse	*>Label>Verse	*>Label>Verse	*>Label>Verse
8r	.	1AM	newline	voice	.	102.379	A:5
4A	I	.	.	.	.	.	.
4.A	pull	.	.	.	.	.	.
8A	you	.	.	.	.	.	.
[8B	close	.	.	.	.	.	.
=58	=58	=58	=58	=58	=58	=58	=58
8B]	_	1EM	.	voice	.	104.19	E:5
4B	now	.	.	.	.	.	.
8B	ba-	.	.	.	.	.	.
4A	_	.	.	.	.	.	.
8A	-by	.	.	.	.	.	.
8r	.	.	.	.	.	.	.
=59	=59	=59	=59	=59	=59	=59	=59
8r	.	1F#m	.	voice	.	106	F#:5
8c#	but	.	.	.	.	.	.
8c#	when	.	.	.	.	.	.
8c	we	.	.	.	.	.	.
4c#	kiss	.	.	.	.	.	.
8c#	I	.	.	.	.	.	.
8c	can	.	.	.	.	.	.
=60	=60	=60	=60	=60	=60	=60	=60
8c#	feel	1DM	.	voice	.	107.81	D:5
8c#	a	.	.	.	.	.	.
8B	_	.	.	.	.	.	.
[8A	doubt	.	.	.	A	.	.
4A]	_	.	.	.	.	.	.
4r	.	.	.	.	.	.	.
=61	=61	=61	=61	=61	=61	=61	=61
4r	.	1AM	newline	voice	.	109.621	A:5
8A	I	.	.	.	.	.	.
8A	re	.	.	.	.	.	.
8A	mem	.	.	.	.	.	.
8A	ber	.	.	.	.	.	.
8A	back	.	.	.	.	.	.
[8B	when	.	.	.	.	.	.
=62	=62	=62	=62	=62	=62	=62	=62
8B]	_	1EM	.	voice	.	111.422	E:5
4B	we	.	.	.	.	.	.
[8c#	start	.	.	.	.	.	.
8c#]	_	.	.	.	.	.	.
4.A	ed	.	.	.	.	.	.
=63	=63	=63	=63	=63	=63	=63	=63
8r	.	1F#m	.	voice	.	113.223	F#:5
8c#	my	.	.	.	.	.	.
8c#	kiss	.	.	.	.	.	.
8c	es	.	.	.	.	.	.
8c#	used	.	.	.	.	.	.
8c	to	.	.	.	.	.	.
8c#	turn	.	.	.	.	.	.
8c	you	.	.	.	.	.	.
=64	=64	=64	=64	=64	=64	=64	=64
8c#	in	1DM	.	voice	.	115.024	D:5
8c#	side	.	.	.	.	.	.
8B	_	.	.	.	.	.	.
4.A	out	.	.	.	A	.	.
8F#	well	.	.	.	.	.	.
8E	_	.	.	.	.	.	.
=65	=65	=65	=65	=65	=65	=65	=65
8r	.	1AM	newline	voice	.	116.825	A:5
8A	I	.	.	.	.	.	.
8A	used	.	.	.	.	.	.
8A	to	.	.	.	.	.	.
4A	drive	.	.	.	.	.	.
8A	you	.	.	.	.	.	.
8A	to	.	.	.	.	.	.
=66	=66	=66	=66	=66	=66	=66	=66
8B	work	1EM	.	voice	.	118.635	E:5
8B	in	.	.	.	.	.	.
8B	the	.	.	.	.	.	.
4c#	morn	.	.	.	.	.	.
[8A	ing	.	.	.	.	.	.
4A]	_	.	.	.	.	.	.
=67	=67	=67	=67	=67	=67	=67	=67
4r	.	1F#m	.	voice	.	120.446	F#:5
8c#	Fri	.	.	.	.	.	.
8c#	day	.	.	.	.	.	.
8c#	night	.	.	.	.	.	.
8c	I'd	.	.	.	.	.	.
8c#	drive	.	.	.	.	.	.
8c	you	.	.	.	.	.	.
=68	=68	=68	=68	=68	=68	=68	=68
8c#	all	1DM	.	voice	.	122.256	D:5
8c#	a	.	.	.	.	.	.
8B	_	.	.	.	.	.	.
[8A	round	.	.	.	A	.	.
4A]	_	.	.	.	.	.	.
8F#	well	.	.	.	.	.	.
8E	_	.	.	.	.	.	.
=69	=69	=69	=69	=69	=69	=69	=69
8r	.	1AM	newline	voice	.	124.066	A:5
8A	You	.	.	.	.	.	.
8A	used	.	.	.	.	.	.
8A	to	.	.	.	.	.	.
4A	love	.	.	.	.	.	.
8A	to	.	.	.	.	.	.
[8B	drive	.	.	.	.	.	.
=70	=70	=70	=70	=70	=70	=70	=70
4B]	_	1EM	.	voice	.	125.855	E:5
8B	me	.	.	.	.	.	.
[8c#	wild	.	.	.	B	.	.
4c#]	_	.	.	.	.	.	.
8B	yeah	.	.	.	.	.	.
8A	_	.	.	.	.	.	.
=71	=71	=71	=71	=71	=71	=71	=71
8r	.	1F#m	.	voice	.	127.643	F#:5
8c#	but	.	.	.	.	.	.
8c#	late	.	.	.	.	.	.
8c#	ly	.	.	.	.	.	.
8c#	girl	.	.	.	.	.	.
8c	you	.	.	.	.	.	.
8c#	get	.	.	.	.	.	.
8c	your	.	.	.	.	.	.
=72	=72	=72	=72	=72	=72	=72	=72
8c#	kicks	1DM	.	voice	.	129.431	D:5
8c	from	.	.	.	.	.	.
8c#	just	.	.	.	.	.	.
8c	a	.	.	.	.	.	.
8c#	dri	.	.	.	.	.	.
8c	vin	.	.	.	.	.	.
8B	me	.	.	.	.	.	.
[8A	down	.	.	.	A	.	.
=73	=73	=73	=73	=73	=73	=73	=73
*>Letter>B	*>Letter>B	*>Letter>B	*>Letter>B	*>Letter>B	*>Letter>B	*>Letter>B	*>Letter>B
*>Label>Chorus	*>Label>Chorus	*>Label>Chorus	*>Label>Chorus	*>Label>Chorus	*>Label>Chorus	*>Label>Chorus	*>Label>Chorus
4.A]	_	1AM	newline	voice	.	131.219	A:maj
[8A	down	.	.	.	.	.	.
4A]	_	.	.	.	.	.	.
[4A	down	.	.	.	.	.	.
=74	=74	=74	=74	=74	=74	=74	=74
8A]	_	1EM	.	voice	.	133.024	E:maj
4.A	down	.	.	.	.	.	.
8r	.	.	.	.	.	.	.
8B	I'm	.	.	.	.	.	.
8B	go	.	.	.	.	.	.
8A	ing	.	.	.	.	.	.
=75	=75	=75	=75	=75	=75	=75	=75
4.A	down	1F#m	.	voice	.	134.829	F#:min
[8A	down	.	.	.	.	.	.
4A]	_	.	.	.	.	.	.
[4A	down	.	.	.	.	.	.
=76	=76	=76	=76	=76	=76	=76	=76
8A]	_	1DM	.	voice	.	136.633	D:maj
4.A	down	.	.	.	.	.	.
8r	.	.	.	.	.	.	.
8B	I'm	.	.	.	.	.	.
8B	go	.	.	.	.	.	.
8A	ing	.	.	.	.	.	.
=77	=77	=77	=77	=77	=77	=77	=77
4.A	down	1AM	newline	voice	.	138.438	A:maj
[8A	down	.	.	.	.	.	.
4A]	_	.	.	.	.	.	.
[4B	down	.	.	.	.	.	.
=78	=78	=78	=78	=78	=78	=78	=78
8B]	_	1EM	.	voice	.	140.261	E:maj
4.B	down	.	.	.	.	.	.
8r	.	.	.	.	.	.	.
8c#	I'm	.	.	.	.	.	.
8c#	go	.	.	.	.	.	.
8B	in	.	.	.	.	.	.
=79	=79	=79	=79	=79	=79	=79	=79
4.A	down	1F#m	.	voice	.	142.083	F#:min
[8A	down	.	.	.	.	.	.
4A]	_	.	.	.	.	.	.
[4A	down	.	.	.	.	.	.
=80	=80	=80	=80	=80	=80	=80	=80
8A]	_	1DM	.	voice	.	143.905	D:maj
4.A	_	.	.	.	.	.	.
8r	.	.	.	.	.	.	.
8B	I'm	.	.	.	.	.	.
8B	go	.	.	.	.	.	.
8A	ing	.	.	.	.	.	.
=81	=81	=81	=81	=81	=81	=81	=81
*>Letter>B	*>Letter>B	*>Letter>B	*>Letter>B	*>Letter>B	*>Letter>B	*>Letter>B	*>Letter>B
*>Label>Chorus	*>Label>Chorus	*>Label>Chorus	*>Label>Chorus	*>Label>Chorus	*>Label>Chorus	*>Label>Chorus	*>Label>Chorus
4.A	down	1AM	newline	voice	.	145.727	A:5
[8A	down	.	.	.	.	.	.
4A]	_	.	.	.	.	.	.
[4A	down	.	.	.	.	.	.
=82	=82	=82	=82	=82	=82	=82	=82
8A]	_	1EM	.	voice	.	147.527	E:5
4.A	down	.	.	.	.	.	.
8r	.	.	.	.	.	.	.
8B	I'm	.	.	.	.	.	.
8B	go	.	.	.	.	.	.
8A	ing	.	.	.	.	.	.
=83	=83	=83	=83	=83	=83	=83	=83
4.A	down	1F#m	.	voice	.	149.326	F#:5
[8A	down	.	.	.	.	.	.
4A]	_	.	.	.	.	.	.
[4A	down	.	.	.	.	.	.
=84	=84	=84	=84	=84	=84	=84	=84
8A]	_	1DM	.	voice	.	151.126	D:5
4.A	down	.	.	.	.	.	.
8r	.	.	.	.	.	.	.
8B	I'm	.	.	.	.	.	.
8B	go	.	.	.	.	.	.
8A	ing	.	.	.	.	.	.
=85	=85	=85	=85	=85	=85	=85	=85
4.A	down	1AM	newline	voice	.	152.926	A:5
[8A	down	.	.	.	.	.	.
4A]	_	.	.	.	.	.	.
[4B	down	.	.	.	.	.	.
=86	=86	=86	=86	=86	=86	=86	=86
8B]	_	1EM	.	voice	.	154.72	E:5
4.B	down	.	.	.	.	.	.
8r	.	.	.	.	.	.	.
8c#	I'm	.	.	.	.	.	.
8c#	go	.	.	.	.	.	.
8B	ing	.	.	.	.	.	.
=87	=87	=87	=87	=87	=87	=87	=87
4.A	down	1F#m	.	voice	.	156.515	F#:5
[8c#	down	.	.	.	.	.	.
8c#]	_	.	.	.	.	.	.
8c#	a	.	.	.	.	.	.
8c#	da	.	.	.	.	.	.
8c#	ba	.	.	.	.	.	.
=88	=88	=88	=88	=88	=88	=88	=88
8c#	do	1DM	.	voice	.	158.31	D:5
8c#	da	.	.	.	.	.	.
8B	_	.	.	.	.	.	.
8A	down	.	.	.	.	.	.
8r	.	.	.	.	.	.	.
8B	I'm	.	.	.	.	.	.
8B	go	.	.	.	.	.	.
8A	ing	.	.	.	.	.	.
=89	=89	=89	=89	=89	=89	=89	=89
*>Letter>B	*>Letter>B	*>Letter>B	*>Letter>B	*>Letter>B	*>Letter>B	*>Letter>B	*>Letter>B
*>Label>Chorus	*>Label>Chorus	*>Label>Chorus	*>Label>Chorus	*>Label>Chorus	*>Label>Chorus	*>Label>Chorus	*>Label>Chorus
4.A	down	1AM	newline	voice	.	160.105	A:maj
[8e	down	.	.	.	.	.	.
4e]	_	.	.	.	.	.	.
[4B	down	.	.	.	.	.	.
=90	=90	=90	=90	=90	=90	=90	=90
8B]	_	1EM	.	voice	.	161.923	E:maj
4.B	down	.	.	.	.	.	.
8r	.	.	.	.	.	.	.
8c#	I'm	.	.	.	.	.	.
8c#	go	.	.	.	.	.	.
8B	ing	.	.	.	.	.	.
=91	=91	=91	=91	=91	=91	=91	=91
4.A	down	1F#m	.	voice	.	163.74	F#:min
[8c#	hey	.	.	.	.	.	.
8c#]	_	.	.	.	.	.	.
8c#	a	.	.	.	.	.	.
8c#	bap	.	.	.	.	.	.
8c#	a	.	.	.	.	.	.
=92	=92	=92	=92	=92	=92	=92	=92
8c#	do	1DM	.	voice	.	165.558	D:maj
8c#	dah	.	.	.	.	.	.
8B	_	.	.	.	.	.	.
8A	down	.	.	.	.	.	.
8r	.	.	.	.	.	.	.
8B	I'm	.	.	.	.	.	.
8B	go	.	.	.	.	.	.
8A	in	.	.	.	.	.	.
=93	=93	=93	=93	=93	=93	=93	=93
4.A	down	1AM	newline	voice	.	167.375	A:maj
[8e	down	.	.	.	.	.	.
4e]	_	.	.	.	.	.	.
[4B	down	.	.	.	.	.	.
=94	=94	=94	=94	=94	=94	=94	=94
8B]	_	1EM	.	voice	.	169.178	E:maj
8r	.	.	.	.	.	.	.
4c#	hey	.	.	.	.	.	.
8r	.	.	.	.	.	.	.
8c#	I'm	.	.	.	.	.	.
8c#	go	.	.	.	.	.	.
8B	ing	.	.	.	.	.	.
=95	=95	=95	=95	=95	=95	=95	=95
4.A	down	1F#m	.	voice	.	170.981	F#:min
[8A	down	.	.	.	.	.	.
8A]	_	.	.	.	.	.	.
8c#	hey	.	.	.	.	.	.
8c#	bap	.	.	.	.	.	.
8B	a	.	.	.	.	.	.
=96	=96	=96	=96	=96	=96	=96	=96
8r	.	1DM	.	voice	.	172.784	D:maj
8c#	hey	.	.	.	.	.	.
8c#	bap	.	.	.	.	.	.
8c#	a	.	.	.	.	.	.
8c#	do	.	.	.	.	.	.
8c#	dah	.	.	.	.	.	.
8B	_	.	.	.	.	.	.
8A	down	.	.	.	.	.	.
=97	=97	=97	=97	=97	=97	=97	=97
*>Letter>B	*>Letter>B	*>Letter>B	*>Letter>B	*>Letter>B	*>Letter>B	*>Letter>B	*>Letter>B
*>Label>Solo	*>Label>Solo	*>Label>Solo	*>Label>Solo	*>Label>Solo	*>Label>Solo	*>Label>Solo	*>Label>Solo
4r	.	1AM	newline	piano	.	174.586	A:maj
8r	.	.	.	.	.	.	.
[8e	hey	.	.	.	.	.	.
4e]	_	.	.	.	.	.	.
[4B	hmm	.	.	.	.	.	.
=98	=98	=98	=98	=98	=98	=98	=98
8B]	_	1EM	.	piano	.	176.389	E:maj
8B	de	.	.	.	.	.	.
4B	bop	.	.	.	.	.	.
8B	bop	.	.	.	.	.	.
8A	a	.	.	.	.	.	.
8A	well	.	.	.	.	.	.
8A	a	.	.	.	.	.	.
=99	=99	=99	=99	=99	=99	=99	=99
4A	down	1F#m	.	piano	.	178.191	F#:min
8r	.	.	.	.	.	.	.
[8f#	hey	.	.	.	.	.	.
8f#]	_	.	.	.	.	.	.
[8c#	hey	.	.	.	.	.	.
8c#]	_	.	.	.	.	.	.
[8B	hmm	.	.	.	.	.	.
=100	=100	=100	=100	=100	=100	=100	=100
8B]	_	1DM	.	piano	.	179.994	D:maj
8B	de	.	.	.	.	.	.
4B	bop	.	.	.	.	.	.
8B	bop	.	.	.	.	.	.
8A	I	.	.	.	.	.	.
8A	said	.	.	.	.	.	.
8A	a	.	.	.	.	.	.
=101	=101	=101	=101	=101	=101	=101	=101
4A	down	1AM	newline	piano	.	181.797	A:maj
8r	.	.	.	.	.	.	.
[8f#	hey	.	.	.	.	.	.
8f#]	_	.	.	.	.	.	.
[8c#	hey	.	.	.	.	.	.
8c#]	_	.	.	.	.	.	.
[8B	hmm	.	.	.	.	.	.
=102	=102	=102	=102	=102	=102	=102	=102
8B]	_	1EM	.	piano	.	183.559	E:maj
8B	de	.	.	.	.	.	.
4B	bop	.	.	.	.	.	.
8B	bop	.	.	.	.	.	.
8A	a	.	.	.	.	.	.
8A	well	.	.	.	.	.	.
8A	a	.	.	.	.	.	.
=103	=103	=103	=103	=103	=103	=103	=103
8A	down	1F#m	.	piano	.	185.322	F#:min
4r	.	.	.	.	.	.	.
[8c#	hey	.	.	.	.	.	.
8c#]	_	.	.	.	.	.	.
[8B	hey	.	.	.	.	.	.
8B]	_	.	.	.	.	.	.
[8B	oh	.	.	.	.	.	.
=104	=104	=104	=104	=104	=104	=104	=104
8B]	_	1DM	.	piano	.	187.085	D:maj
8A	a	.	.	.	.	.	.
4A	bop	.	.	.	.	.	.
4A	bop	.	.	.	.	.	.
4A	yeah	.	.	.	.	.	.
=105	=105	=105	=105	=105	=105	=105	=105
*>Label>>Fadeout	*>Label>>Fadeout	*>Label>>Fadeout	*>Label>>Fadeout	*>Label>>Fadeout	*>Label>>Fadeout	*>Label>>Fadeout	*>Label>>Fadeout
4r	.	1AM	newline	piano	.	188.848	A:maj
8r	.	.	.	.	.	.	.
[8e	hey	.	.	.	.	.	.
4e]	_	.	.	.	.	.	.
[4B	hmm	.	.	.	.	.	.
=106	=106	=106	=106	=106	=106	=106	=106
8B]	_	1EM	.	piano	.	190.639	E:maj
8B	hey	.	.	.	.	.	.
4r	.	.	.	.	.	.	.
8r	.	.	.	.	.	.	.
[8a	say'n	.	.	.	.	.	.
8a]	_	.	.	.	.	.	.
[8f#	down	.	.	.	.	.	.
=107	=107	=107	=107	=107	=107	=107	=107
8f#]	_	1F#m	.	piano	.	192.431	F#:min
[8e	down	.	.	.	.	.	.
8e]	_	.	.	.	.	.	.
[8c#	down	.	.	.	.	.	.
8c#]	_	.	.	.	.	.	.
[8B	down	.	.	.	.	.	.
8B]	_	.	.	.	.	.	.
8B	down	.	.	.	.	.	.
=108	=108	=108	=108	=108	=108	=108	=108
4A	_	1DM	.	piano	.	194.222	D:maj
4r	.	.	.	.	.	.	.
8r	.	.	.	.	.	.	.
[8a	hey	.	.	.	.	.	.
8a]	_	.	.	.	.	.	.
[8f#	down	.	.	.	.	.	.
=109	=109	=109	=109	=109	=109	=109	=109
8f#]	_	1AM	newline	guitar	.	196.013	A:maj
[8e	down	.	.	.	.	.	.
4e]	_	.	.	.	.	.	.
2r	.	.	.	.	.	.	.
=110	=110	=110	=110	=110	=110	=110	=110
2r	.	1EM	.	guitar	.	197.804	E:maj
8r	.	.	.	.	.	.	.
[8a	Say'n	.	.	.	.	.	.
8a]	_	.	.	.	.	.	.
[8f#	down	.	.	.	.	.	.
=111	=111	=111	=111	=111	=111	=111	=111
8f#]	_	1F#m	.	guitar	.	199.594	F#:min
[8e	down	.	.	.	.	.	.
8e]	_	.	.	.	.	.	.
[8c#	down	.	.	.	.	.	.
8c#]	_	.	.	.	.	.	.
[8B	down	.	.	.	.	.	.
8B]	_	.	.	.	.	.	.
8B	down	.	.	.	.	.	.
=112	=112	=112	=112	=112	=112	=112	=112
4A	_	1DM	.	guitar	.	201.385	D:maj
4r	.	.	.	.	.	.	.
8r	.	.	.	.	.	.	.
[8c#	hey	.	.	.	.	.	.
8c#]	_	.	.	.	.	.	.
[8B	hey	.	.	.	.	.	.
=113	=113	=113	=113	=113	=113	=113	=113
8B]	_	1AM	newline	guitar	.	203.175	A:maj
8B	hmm	.	.	.	.	.	.
8A	_	.	.	.	.	.	.
2r	.	.	.	.	.	.	.
8r	.	.	.	.	.	.	.
=114	=114	=114	=114	=114	=114	=114	=114
1r	.	1EM	.	guitar	.	203.726	E:maj
=115	=115	=115	=115	=115	=115	=115	=115
1r	.	1F#m	.	guitar	.	204.278	F#:min
=116	=116	=116	=116	=116	=116	=116	=116
1r	.	1DM	.	guitar	.	204.829	D:maj
r;	.	1r;	.	r	.	205.38	N.C.
r;	.	1r;	.	r	.	211.984	N.C.
*-	*-	*-	*-	*-	*-	*-	*-
!!!BillboardChartDate: 1985/11/09
!!!BillboardPeak: 9
!!!BillboardWeeksOnChart: 13
!!!COC: Bruce Springsteen
!!!ENC: Nathaniel Condit-Schultz
!!!EST: Awating manual error checking and editing.
!!!OTL: I m Goin  Down
!!!RDF**chordsym: original McGill chord annotation + (implied pitch class set, with bass pitch in first position)
!!!RDF**harmony: **recip + pitch class of root + harmonic quality
!!!RDF**leadinstrument: original McGill primary instrumentation annotation
!!!RDF**phrase: newline = linebreak in original McGill transcription
!!!RDF**timestamp: McGill audio timestamp in seconds
!!!RDT: 2017/01/12/
!!!SampleActualRank: 32
!!!SampleID#: 0426
!!!SampleTargetRank: 32
